X: 51
T: Song Concerning Mother Moon
N: Derived from pawnee51.krn
O: Oklahoma, U.S.A.
N: from Pawnee Music by Frances Densmore, 1926
Z: transcribed to **kern format by David Huron, August 2000
C: Skidi and Chaui Bands, 1919
L: 1/4
M: 3/4
Q: 1/4=88
K: F clef=treble
%%linebreak <none>
D [I:setbarnb 1]| 
A>FF[M:2/4] | 
FF[M:3/4] | 
A>FF[M:2/4] | 
FD | 
F(F// E3//) | 
(F/< D/)D[M:3/4] | 
F(F/< E/) (F// D3//)[M:2/4] | 
F/ D/ D/ D/[M:3/4] | 
DDD[M:2/4] | 
F/ D/ D/ D/ | 
DD | 
D :|]  



